assets/invite.svg

<svg fill="none" xmlns="http://www.w3.org/2000/svg" viewBox="0 0 432 372">
  <path fill="#5A51FF" stroke="#000" stroke-width="2" d="M165.543 134.563L36.11 99.881 1.427 229.315l129.435 34.682z"/>
  <path fill="#FE7362" stroke="#000" stroke-width="2" d="M175.341 128.906L45.907 94.224 11.225 223.658 140.66 258.34z"/>
  <path fill="#5A51FF" stroke="#000" stroke-width="2" d="M20.025 190.817l-2.588 9.66 129.434 34.681 2.588-9.66z"/>
  <mask id="a" fill="#fff">
    <path fill-rule="evenodd" clip-rule="evenodd" d="M124.49 194.997c-1.735 6.475-10.383 9.784-19.315 7.391-8.933-2.394-14.768-9.583-13.033-16.058l32.348 8.667z"/>
  </mask>
  <path fill-rule="evenodd" clip-rule="evenodd" d="M124.49 194.997c-1.735 6.475-10.383 9.784-19.315 7.391-8.933-2.394-14.768-9.583-13.033-16.058l32.348 8.667z" fill="#5A51FF"/>
  <path d="M124.49 194.997l.518-1.931 1.931.517-.517 1.932-1.932-.518zm-32.348-8.667l-1.932-.518.518-1.932 1.932.518-.518 1.932zm13.55 14.126c4.104 1.1 8.064.865 11.125-.306 3.063-1.172 5.081-3.206 5.741-5.67l3.864 1.035c-1.075 4.011-4.248 6.868-8.176 8.371-3.93 1.504-8.76 1.728-13.589.434l1.035-3.864zm-11.618-13.609c-.66 2.465.07 5.236 2.137 7.782 2.065 2.544 5.377 4.727 9.481 5.827l-1.035 3.864c-4.829-1.294-8.9-3.903-11.552-7.17-2.65-3.266-3.97-7.327-2.895-11.338l3.864 1.035zm-1.414-2.449l32.348 8.668-1.036 3.863-32.347-8.667 1.035-3.864z" fill="#000" mask="url(#a)"/>
  <path fill="#5A51FF" stroke="#000" stroke-width="2" d="M80.68 103.542l-9.66-2.588-34.68 129.434 9.658 2.588z"/>
  <circle r="5" transform="scale(-1 1) rotate(-15 608.966 424.928)" fill="#000"/>
  <circle r="5" transform="scale(-1 1) rotate(-15 631.963 599.63)" fill="#000"/>
  <path fill="#5A51FF" stroke="#000" stroke-width="2" d="M339.08 230.961l91.454 21.73-21.73 91.454-91.454-21.73z"/>
  <path fill="#FE7362" stroke="#000" stroke-width="2" d="M334.891 224.161l91.454 21.73-21.73 91.454-91.454-21.73z"/>
  <path fill="#5A51FF" stroke="#000" stroke-width="2" d="M410.027 314.568l-1.496 6.296-91.454-21.73 1.496-6.296z"/>
  <mask id="b" fill="#fff">
    <path fill-rule="evenodd" clip-rule="evenodd" d="M344.093 281.912c-1.094 4.603 3.168 9.559 9.519 11.068 6.351 1.509 12.386-1 13.48-5.604l-22.999-5.464z"/>
  </mask>
  <path fill-rule="evenodd" clip-rule="evenodd" d="M344.093 281.912c-1.094 4.603 3.168 9.559 9.519 11.068 6.351 1.509 12.386-1 13.48-5.604l-22.999-5.464z" fill="#5A51FF"/>
  <path d="M344.093 281.912l.463-1.946-1.946-.462-.462 1.945 1.945.463zm22.999 5.464l1.946.463.462-1.946-1.945-.462-.463 1.945zm-13.017 3.658c-2.811-.668-5.079-2.082-6.498-3.732-1.42-1.652-1.9-3.405-1.538-4.928l-3.891-.925c-.732 3.081.372 6.108 2.397 8.461 2.026 2.356 5.064 4.174 8.605 5.016l.925-3.892zm11.071-4.12c-.361 1.523-1.578 2.873-3.59 3.71-2.009.835-4.671 1.078-7.481.41l-.925 3.892c3.54.841 7.072.584 9.941-.609 2.867-1.192 5.215-3.398 5.947-6.478l-3.892-.925zm2.409-1.483l-22.999-5.465-.925 3.892 22.999 5.464.925-3.891z" fill="#000" mask="url(#b)"/>
  <path fill="#5A51FF" stroke="#000" stroke-width="2" d="M402.194 240.153l6.296 1.496-21.73 91.454-6.296-1.496z"/>
  <path fill-rule="evenodd" clip-rule="evenodd" d="M342.377 269.305a4.002 4.002 0 013.098 4.734l-1.566-.327a2.4 2.4 0 00-4.699-.982l-1.566-.327a4 4 0 014.733-3.098zM374.516 276.888a3.999 3.999 0 013.098 4.733l-1.566-.327a2.4 2.4 0 10-4.699-.982l-1.566-.327a4 4 0 014.733-3.097z" fill="#000"/>
  <path fill="#5A51FF" stroke="#000" stroke-width="2" d="M259.551 106.689l92.982-13.796 13.796 92.982-92.982 13.796z"/>
  <path fill="#FE7362" stroke="#000" stroke-width="2" d="M253.136 101.932l92.982-13.796 13.796 92.982-92.982 13.796z"/>
  <path fill="#5A51FF" stroke="#000" stroke-width="2" d="M356.478 157.96l.95 6.4-92.982 13.797-.95-6.4z"/>
  <mask id="c" fill="#fff">
    <path fill-rule="evenodd" clip-rule="evenodd" d="M283.131 152.132c.695 4.681 6.492 7.699 12.949 6.741 6.458-.959 11.129-5.53 10.435-10.21l-23.384 3.469z"/>
  </mask>
  <path fill-rule="evenodd" clip-rule="evenodd" d="M283.131 152.132c.695 4.681 6.492 7.699 12.949 6.741 6.458-.959 11.129-5.53 10.435-10.21l-23.384 3.469z" fill="#5A51FF"/>
  <path d="M283.131 152.132l-.293-1.978-1.979.293.294 1.979 1.978-.294zm23.384-3.469l1.978-.294-.294-1.978-1.978.293.294 1.979zm-10.728 8.231c-2.857.424-5.488-.046-7.419-1.051-1.932-1.006-3.029-2.456-3.258-4.004l-3.957.587c.465 3.132 2.615 5.531 5.369 6.965 2.756 1.435 6.252 1.994 9.852 1.46l-.587-3.957zm8.749-7.938c.23 1.549-.398 3.254-1.955 4.778-1.556 1.522-3.937 2.736-6.794 3.16l.587 3.957c3.6-.534 6.783-2.085 9.004-4.258 2.219-2.171 3.58-5.092 3.115-8.224l-3.957.587zm1.685-2.272l-23.383 3.47.587 3.957 23.383-3.47-.587-3.957z" fill="#000" mask="url(#c)"/>
  <path fill="#5A51FF" stroke="#000" stroke-width="2" d="M321.563 91.779l6.4-.95 13.797 92.982-6.4.95z"/>
  <path fill-rule="evenodd" clip-rule="evenodd" d="M276.855 141.065a4 4 0 014.634 3.244l-1.575.278a2.401 2.401 0 00-4.727.835l-1.576.278a4 4 0 013.244-4.635zM309.511 136.167a4 4 0 014.635 3.243l-1.576.279a2.4 2.4 0 10-4.727.834l-1.575.278a4 4 0 013.243-4.634z" fill="#000"/>
  <path d="M110 87.021c16.525-27.047 71.479-67.02 159.091-10.535M73 266c16.206 32.926 82.895 87.704 220 43.403" stroke="#C4C4C4" stroke-width="4" stroke-dasharray="12 3"/>
  <circle cx="185.5" cy="46.5" r="44.5" fill="#fff" stroke="#C4C4C4" stroke-width="4"/>
  <path d="M208 28h-45.977L162 65h46V28zm-4.6 32.375h-36.8V37.25L185 48.813l18.4-11.563v23.125zM185 44.187l-18.4-11.562h36.8L185 44.188z" fill="#5A51FF"/>
  <circle cx="183.5" cy="325.5" r="44.5" fill="#fff" stroke="#C4C4C4" stroke-width="4"/>
  <path d="M206 307h-45.977L160 344h46v-37zm-4.6 32.375h-36.8V316.25l18.4 11.562 18.4-11.562v23.125zM183 323.188l-18.4-11.563h36.8L183 323.188z" fill="#5A51FF"/>
</svg>

<svg width="432" height="372" viewBox="0 0 432 372" fill="none" xmlns="http://www.w3.org/2000/svg">
<rect x="-1.22474" y="0.707107" width="134" height="134" transform="matrix(-0.965926 -0.258819 -0.258819 0.965926 164.543 133.563)" fill="#5A51FF" stroke="black" stroke-width="2"/>
<rect x="-1.22474" y="0.707107" width="134" height="134" transform="matrix(-0.965926 -0.258819 -0.258819 0.965926 174.341 127.906)" fill="#FE7362" stroke="black" stroke-width="2"/>
<rect x="0.707107" y="1.22474" width="10" height="134" transform="matrix(-0.258819 0.965926 0.965926 0.258819 19.0246 189.817)" fill="#5A51FF" stroke="black" stroke-width="2"/>
<mask id="path-4-inside-1" fill="white">
<path fill-rule="evenodd" clip-rule="evenodd" d="M124.49 194.997C122.755 201.472 114.107 204.781 105.175 202.388C96.242 199.994 90.4072 192.805 92.1422 186.33L124.49 194.997Z"/>
</mask>
<path fill-rule="evenodd" clip-rule="evenodd" d="M124.49 194.997C122.755 201.472 114.107 204.781 105.175 202.388C96.242 199.994 90.4072 192.805 92.1422 186.33L124.49 194.997Z" fill="#5A51FF"/>
<path d="M124.49 194.997L125.008 193.066L126.939 193.583L126.422 195.515L124.49 194.997ZM92.1422 186.33L90.2103 185.812L90.7279 183.88L92.6598 184.398L92.1422 186.33ZM105.692 200.456C109.796 201.556 113.756 201.321 116.817 200.15C119.88 198.978 121.898 196.944 122.558 194.48L126.422 195.515C125.347 199.526 122.174 202.383 118.246 203.886C114.316 205.39 109.486 205.614 104.657 204.32L105.692 200.456ZM94.074 186.847C93.4137 189.312 94.1442 192.083 96.211 194.629C98.2759 197.173 101.588 199.356 105.692 200.456L104.657 204.32C99.8281 203.026 95.757 200.417 93.1051 197.15C90.455 193.884 89.1357 189.823 90.2103 185.812L94.074 186.847ZM92.6598 184.398L125.008 193.066L123.972 196.929L91.6245 188.262L92.6598 184.398Z" fill="black" mask="url(#path-4-inside-1)"/>
<rect x="-1.22474" y="0.707107" width="10" height="134" transform="matrix(-0.965926 -0.258819 -0.258819 0.965926 79.6798 102.542)" fill="#5A51FF" stroke="black" stroke-width="2"/>
<circle r="5" transform="matrix(-0.965926 -0.258819 -0.258819 0.965926 89.2295 172.091)" fill="black"/>
<circle r="5" transform="matrix(-0.965926 -0.258819 -0.258819 0.965926 133.662 183.996)" fill="black"/>
<rect x="339.08" y="230.961" width="94" height="94" transform="rotate(13.3659 339.08 230.961)" fill="#5A51FF" stroke="black" stroke-width="2"/>
<rect x="334.891" y="224.161" width="94" height="94" transform="rotate(13.3659 334.891 224.161)" fill="#FE7362" stroke="black" stroke-width="2"/>
<rect x="410.027" y="314.568" width="6.4706" height="94" transform="rotate(103.366 410.027 314.568)" fill="#5A51FF" stroke="black" stroke-width="2"/>
<mask id="path-12-inside-2" fill="white">
<path fill-rule="evenodd" clip-rule="evenodd" d="M344.093 281.912C342.999 286.515 347.261 291.471 353.612 292.98C359.963 294.489 365.998 291.98 367.092 287.376L344.093 281.912Z"/>
</mask>
<path fill-rule="evenodd" clip-rule="evenodd" d="M344.093 281.912C342.999 286.515 347.261 291.471 353.612 292.98C359.963 294.489 365.998 291.98 367.092 287.376L344.093 281.912Z" fill="#5A51FF"/>
<path d="M344.093 281.912L344.556 279.966L342.61 279.504L342.148 281.449L344.093 281.912ZM367.092 287.376L369.038 287.839L369.5 285.893L367.555 285.431L367.092 287.376ZM354.075 291.034C351.264 290.366 348.996 288.952 347.577 287.302C346.157 285.65 345.677 283.897 346.039 282.374L342.148 281.449C341.416 284.53 342.52 287.557 344.545 289.91C346.571 292.266 349.609 294.084 353.15 294.926L354.075 291.034ZM365.146 286.914C364.785 288.437 363.568 289.787 361.556 290.624C359.547 291.459 356.885 291.702 354.075 291.034L353.15 294.926C356.69 295.767 360.222 295.51 363.091 294.317C365.958 293.125 368.306 290.919 369.038 287.839L365.146 286.914ZM367.555 285.431L344.556 279.966L343.631 283.858L366.63 289.322L367.555 285.431Z" fill="black" mask="url(#path-12-inside-2)"/>
<rect x="402.194" y="240.153" width="6.47058" height="94" transform="rotate(13.3659 402.194 240.153)" fill="#5A51FF" stroke="black" stroke-width="2"/>
<path fill-rule="evenodd" clip-rule="evenodd" d="M342.377 269.305C344.539 269.757 345.926 271.876 345.475 274.039L343.909 273.712C344.18 272.414 343.347 271.143 342.05 270.872C340.752 270.601 339.481 271.433 339.21 272.73L337.644 272.403C338.095 270.241 340.214 268.854 342.377 269.305Z" fill="black"/>
<path fill-rule="evenodd" clip-rule="evenodd" d="M374.516 276.888C376.679 277.339 378.066 279.458 377.614 281.621L376.048 281.294C376.319 279.996 375.487 278.725 374.189 278.454C372.892 278.183 371.62 279.015 371.349 280.312L369.783 279.985C370.235 277.823 372.354 276.436 374.516 276.888Z" fill="black"/>
<rect x="259.551" y="106.689" width="94" height="94" transform="rotate(-8.43969 259.551 106.689)" fill="#5A51FF" stroke="black" stroke-width="2"/>
<rect x="253.136" y="101.932" width="94" height="94" transform="rotate(-8.43969 253.136 101.932)" fill="#FE7362" stroke="black" stroke-width="2"/>
<rect x="356.478" y="157.96" width="6.4706" height="94" transform="rotate(81.5603 356.478 157.96)" fill="#5A51FF" stroke="black" stroke-width="2"/>
<mask id="path-20-inside-3" fill="white">
<path fill-rule="evenodd" clip-rule="evenodd" d="M283.131 152.132C283.826 156.813 289.623 159.831 296.08 158.873C302.538 157.914 307.209 153.343 306.515 148.663L283.131 152.132Z"/>
</mask>
<path fill-rule="evenodd" clip-rule="evenodd" d="M283.131 152.132C283.826 156.813 289.623 159.831 296.08 158.873C302.538 157.914 307.209 153.343 306.515 148.663L283.131 152.132Z" fill="#5A51FF"/>
<path d="M283.131 152.132L282.838 150.154L280.859 150.447L281.153 152.426L283.131 152.132ZM306.515 148.663L308.493 148.369L308.199 146.391L306.221 146.684L306.515 148.663ZM295.787 156.894C292.93 157.318 290.299 156.848 288.368 155.843C286.436 154.837 285.339 153.387 285.11 151.839L281.153 152.426C281.618 155.558 283.768 157.957 286.522 159.391C289.278 160.826 292.774 161.385 296.374 160.851L295.787 156.894ZM304.536 148.956C304.766 150.505 304.138 152.21 302.581 153.734C301.025 155.256 298.644 156.47 295.787 156.894L296.374 160.851C299.974 160.317 303.157 158.766 305.378 156.593C307.597 154.422 308.958 151.501 308.493 148.369L304.536 148.956ZM306.221 146.684L282.838 150.154L283.425 154.111L306.808 150.641L306.221 146.684Z" fill="black" mask="url(#path-20-inside-3)"/>
<rect x="321.563" y="91.7792" width="6.47058" height="94" transform="rotate(-8.43969 321.563 91.7792)" fill="#5A51FF" stroke="black" stroke-width="2"/>
<path fill-rule="evenodd" clip-rule="evenodd" d="M276.855 141.065C279.031 140.681 281.105 142.134 281.489 144.309L279.914 144.587C279.683 143.282 278.438 142.411 277.133 142.641C275.828 142.871 274.956 144.116 275.187 145.422L273.611 145.7C273.227 143.524 274.68 141.449 276.855 141.065Z" fill="black"/>
<path fill-rule="evenodd" clip-rule="evenodd" d="M309.511 136.167C311.687 135.783 313.762 137.235 314.146 139.41L312.57 139.689C312.34 138.383 311.095 137.512 309.789 137.742C308.484 137.973 307.613 139.218 307.843 140.523L306.268 140.801C305.884 138.625 307.336 136.551 309.511 136.167Z" fill="black"/>
<path d="M110 87.021C126.525 59.9739 181.479 20.0008 269.091 76.4855" stroke="#C4C4C4" stroke-width="4" stroke-dasharray="12 3"/>
<path d="M73 266C89.2063 298.926 155.895 353.704 293 309.403" stroke="#C4C4C4" stroke-width="4" stroke-dasharray="12 3"/>
<circle cx="185.5" cy="46.5" r="44.5" fill="white" stroke="#C4C4C4" stroke-width="4"/>
<path d="M208 28H162.023L162 65H208V28ZM203.4 60.375H166.6V37.25L185 48.8125L203.4 37.25V60.375ZM185 44.1875L166.6 32.625H203.4L185 44.1875Z" fill="#5A51FF"/>
<circle cx="183.5" cy="325.5" r="44.5" fill="white" stroke="#C4C4C4" stroke-width="4"/>
<path d="M206 307H160.023L160 344H206V307ZM201.4 339.375H164.6V316.25L183 327.812L201.4 316.25V339.375ZM183 323.188L164.6 311.625H201.4L183 323.188Z" fill="#5A51FF"/>
</svg>
